svgs/:vivaldi:.svg

<svg width="24" height="24" viewBox="0 0 24 24" fill="none" xmlns="http://www.w3.org/2000/svg">
<path d="M13.734 18.322C15.216 15.74 16.697 13.162 18.179 10.585C18.358 10.273 18.432 9.94002 18.379 9.58502C18.273 8.75902 17.429 8.16102 16.618 8.34102C15.622 8.56402 15.131 9.59602 15.59 10.516C15.758 10.85 15.838 11.21 15.843 11.633L15.836 11.715C15.8222 12.0325 15.7455 12.344 15.6102 12.6315C15.4749 12.9191 15.2838 13.1768 15.048 13.3898C14.8122 13.6028 14.5365 13.7668 14.2367 13.8722C13.937 13.9777 13.6192 14.0225 13.302 14.004C12.432 13.951 11.778 13.533 11.335 12.787C11.1378 12.456 10.9444 12.1226 10.755 11.787C10.649 11.603 10.545 11.419 10.439 11.237L9.91202 10.322C9.67402 9.90502 9.43502 9.48902 9.19402 9.07702C8.88902 8.55302 8.42402 8.27302 7.82402 8.30402C6.68402 8.36302 6.04202 9.57402 6.61102 10.569C6.95602 11.175 7.30302 11.779 7.65102 12.382C8.01423 13.0135 8.37657 13.6455 8.73802 14.278C9.52302 15.648 10.309 17.021 11.103 18.386C11.414 18.916 11.899 19.174 12.511 19.132C13.059 19.09 13.46 18.804 13.734 18.322Z" fill="black"/>
<path d="M12.3999 24.8C7.1429 24.8 4.2229 24.8 2.3089 22.895C0.399902 20.985 0.399902 18.063 0.399902 12.803C0.399902 7.54299 0.399902 4.61999 2.3089 2.70999C4.2229 0.799988 7.1429 0.799988 12.3999 0.799988C17.6569 0.799988 20.5779 0.799988 22.4909 2.70499C24.3999 4.61499 24.3999 7.53699 24.3999 12.797C24.3999 18.057 24.3999 20.979 22.4909 22.89C20.5779 24.8 17.6569 24.8 12.3999 24.8ZM6.0099 6.45199C2.5039 9.96599 2.5039 15.66 6.0099 19.169C9.5159 22.683 15.2049 22.683 18.7159 19.169C22.2279 15.655 22.2279 9.96099 18.7159 6.45199C15.2099 2.93799 9.5209 2.93799 6.0099 6.45199Z" fill="black"/>
</svg>

<svg viewBox="0 0 24 24" width="24" height="24" data-reactroot=""><path d="M13.734 18.322c1.482-2.582 2.963-5.16 4.445-7.737.179-.312.253-.645.2-1-.106-.826-.95-1.424-1.761-1.244-.996.223-1.487 1.255-1.028 2.175.168.334.248.694.253 1.117l-.007.082a2.397 2.397 0 01-2.534 2.289c-.87-.053-1.524-.471-1.967-1.217a48.88 48.88 0 01-.58-1c-.106-.184-.21-.368-.316-.55l-.527-.915c-.238-.417-.477-.833-.718-1.245-.305-.524-.77-.804-1.37-.773-1.14.059-1.782 1.27-1.213 2.265.345.606.692 1.21 1.04 1.813a785.449 785.449 0 011.087 1.896c.785 1.37 1.571 2.743 2.365 4.108.311.53.796.788 1.408.746.548-.042.949-.328 1.223-.81z"></path><path fill-rule="evenodd" clip-rule="evenodd" d="M12.4 24.8c-5.257 0-8.177 0-10.091-1.905C.4 20.985.4 18.063.4 12.803.4 7.543.4 4.62 2.309 2.71 4.223.8 7.143.8 12.4.8s8.178 0 10.091 1.905C24.4 4.615 24.4 7.537 24.4 12.797c0 5.26 0 8.182-1.909 10.093-1.913 1.91-4.834 1.91-10.091 1.91zM6.01 6.452c3.511-3.514 9.2-3.514 12.706 0 3.512 3.509 3.512 9.203 0 12.717-3.511 3.514-9.2 3.514-12.706 0-3.506-3.509-3.506-9.203 0-12.717z"></path></svg>
